src/assets/icons/receive.svg

<?xml version="1.0" encoding="UTF-8"?>
<svg width="50px" height="50px" viewBox="0 0 50 50" version="1.1" xmlns="http://www.w3.org/2000/svg" xmlns:xlink="http://www.w3.org/1999/xlink">
    <title>椭圆形备份 3</title>
    <g id="扩展程序" stroke="none" stroke-width="1" fill="none" fill-rule="evenodd">
        <g id="资产" transform="translate(-83.000000, -172.000000)" fill="#6E7585">
            <g id="编组-7" transform="translate(83.000000, 172.000000)">
                <circle id="椭圆形备份-3" opacity="0.049999997" cx="25" cy="25" r="25"></circle>
                <path d="M20.003961,32 L30.003961,32 C30.5562458,32 31.003961,32.4477153 31.003961,33 C31.003961,33.5522847 30.5562458,34 30.003961,34 L20.003961,34 C19.4516763,34 19.003961,33.5522847 19.003961,33 C19.003961,32.4477153 19.4516763,32 20.003961,32 Z M25.003961,16 C25.5562458,16 26.003961,16.4477153 26.003961,17 L26.003,26.585 L30.6608153,21.9289322 C31.0513396,21.5384079 31.6845046,21.5384079 32.0750288,21.9289322 C32.4655531,22.3194565 32.4655531,22.9526215 32.0750288,23.3431458 L25.7110678,29.7071068 C25.6831824,29.7349921 25.6536579,29.7612383 25.622651,29.7856883 L25.7110678,29.7071068 C25.6756738,29.7425008 25.6382866,29.774687 25.5992676,29.8036654 C25.5750917,29.8215099 25.550236,29.8382813 25.5246212,29.8539326 C25.5125741,29.8613931 25.5003555,29.8685012 25.4880231,29.8753288 C25.468255,29.8862061 25.4478524,29.8966234 25.4270602,29.9063462 C25.4100595,29.914321 25.3927567,29.9218036 25.3752971,29.9287745 C25.3555402,29.9366843 25.3357587,29.9438775 25.3156974,29.9504533 L25.3161036,29.9502619 L25.2958047,29.9566726 C25.2855633,29.9597872 25.2752819,29.9627338 25.2649646,29.9655125 C25.2543216,29.9684635 25.243819,29.9711102 25.2332519,29.9735893 L25.206707,29.9793458 C25.1871272,29.9833803 25.1674499,29.9868237 25.1477036,29.9896761 C25.1284512,29.9925211 25.1088309,29.9947641 25.0890467,29.9964311 C25.0716633,29.9978699 25.0543323,29.9988882 25.0369892,29.9994578 C25.0261718,29.9998183 25.0150876,30 25.003961,30 L24.9709329,29.9994578 C24.9535157,29.9988858 24.9361106,29.9978612 24.9187368,29.996384 L24.8873399,29.9932723 L24.8873399,29.9932723 L24.8604984,29.9897165 C24.8406582,29.9868563 24.8208874,29.9833994 24.801215,29.9793458 C24.7923078,29.9776005 24.7834666,29.975653 24.7746702,29.9735893 L24.7429575,29.9655125 C24.7326402,29.9627338 24.7223587,29.9597872 24.7121174,29.9566726 L24.6922246,29.9504533 C24.6721634,29.9438775 24.6523818,29.9366843 24.6329025,29.928896 C24.6151654,29.9218036 24.5978625,29.914321 24.5807395,29.9063266 C24.5600696,29.8966234 24.5396671,29.8862061 24.5196841,29.8751242 C24.5075666,29.8685012 24.4953479,29.8613931 24.4832523,29.8540045 C24.4576861,29.8382813 24.4328303,29.8215099 24.4088017,29.8036865 C24.4027524,29.7992821 24.3968877,29.7948255 24.3910616,29.7902954 C24.3542642,29.7612383 24.3247396,29.7349921 24.2968542,29.7071068 L17.9328932,23.3431458 C17.5423689,22.9526215 17.5423689,22.3194565 17.9328932,21.9289322 C18.3234175,21.5384079 18.9565825,21.5384079 19.3471068,21.9289322 L24.003,26.584 L24.003961,17 C24.003961,16.4477153 24.4516763,16 25.003961,16 Z" id="形状结合" fill-rule="nonzero"></path>
            </g>
        </g>
    </g>
</svg>

<svg width="50" height="50" xmlns="http://www.w3.org/2000/svg"><g fill="#6e7585" fill-rule="evenodd"><circle opacity=".05" cx="25" cy="25" r="25"/><path d="M20.004 32h10a1 1 0 1 1 0 2h-10a1 1 0 0 1 0-2zm5-16a1 1 0 0 1 1 1l-.001 9.585 4.658-4.656a1 1 0 1 1 1.414 1.414l-6.364 6.364a1.006 1.006 0 0 1-.088.079l.088-.079a1.008 1.008 0 0 1-.395.243l-.02.007a.998.998 0 0 1-.063.017l-.026.005a1.003 1.003 0 0 1-.203.021h-.033l-.052-.004-.032-.003-.027-.003a1.003 1.003 0 0 1-.085-.016l-.032-.008a.998.998 0 0 1-.03-.01l-.02-.006a.992.992 0 0 1-.396-.243l-6.364-6.364a1 1 0 0 1 1.414-1.414l4.656 4.655.001-9.584a1 1 0 0 1 1-1z" fill-rule="nonzero"/></g></svg>
